X: 32068
T: Peninsula Man
R: reel
M: 4/4
K: Eminor
|:B,DFG E2 EB|BEEB dEBc|AGFG ADDF|AFAB cdBA|
[1 B3 A GEEE|CEcB AFFF|B,FBd eBBB|cABG AGF/E/D:|
[2 B2 AB GAFA|EGcB AGFE|DFBd eBBB|cABG AGFB||
e3 g efBf|g2 fd edBA|FGAG EFFF|AddA BAFA|e3 f g2 fg|
a2 g/f/e f2 dA|GABG FDDD|1 ^cdBA GEEE:|2 BdAd EAGD||

